!!!OTL: MEINE RED IST ABSCHIEDSVOLL
!!!ARE: Europa, Mitteleuropa, Deutschland, Hessen, Wetzlar, Ober - Lahnkreis
!!!SCT: E0778
!!!YEM: Copyright 1995, estate of Helmut Schaffrath.
**kern
*ICvox
*Ivox
*M4/4
*k[f#]
*G:
=1
{4.g
8d
4g
4dd
=2
4b
8b
8a
2g}
=3
{4.b
8a
4b
8dd
8ee
=4
4dd
8cc
8b
2a}
=5
{4g
4ee
4dd
8dd
8cc
=6
4b
4dd
2cc}
=7
{4a
4dd
4.b
8a
=8
4g
4a
4b}
{4dd
=9
4ee
8dd
8cc
2b}
==
!!!AGN: Abschieds - Lied, Wander - Lied, Liebe
!!!ONB: ESAC (Essen Associative Code) Database: ERK2
!!!AMT: simple quadruple
!!!AIN: vox
!!!EED: Helmut Schaffrath
!!!EEV: 1.0
*-
